!!!COM: Brahms, Johannes
!!!CDT: 1833/05/07/-1897/04/03/
!!!OTL: Waltz in E Major, Op.39 No.2
!!!ODT: 1865
!!!PDT: 1867
!!!OPS: Op. 39
!!!ONM: No. 2
!!!ENC: Craig Sapp
!!!YEN: Copyright 2001 by Craig Stuart Sapp
!!!YEC: United States of America
**kern	**kern	**kern
*lh	*lh	*rh
*clefF4	*clefF4	*clefG2
*k[f#c#g#d#]	*k[f#c#g#d#]	*k[f#c#g#d#]
*E:	*E:	*E:
*M3/4	*M3/4	*M3/4
*MM172	*MM172	*MM172
*>[I,A,A1,A,A2,B,B1,B,B2]	*>[I,A,A1,A,A2,B,B1,B,B2]	*>[I,A,A1,A,A2,B,B1,B,B2]
*>I	*>I	*>I
4r	4ryy	4b 4bb
=1	=1	=1!|:
*>A	*>A	*>A
2.EE: 2.BB:	8r	4.g# 4.ee 4.gg#
.	8G# 8B	.
.	4G# 4B	.
.	.	8b 8bb
.	4G# 4e	4b 4ee 4bb
=2	=2	=2
2.FF#: 2.BB:	8r	4.a 4.dd# 4.aa
.	8A 8B	.
.	4A 4B	.
.	.	8b 8bb
.	4A 4d#	4b 4dd# 4bb
=3	=3	=3
2.EE: 2.BB	8r	4.g# 4.ee 4.gg#
.	8G# 8B	.
.	4G# 4B	.
.	.	8b 8bb
.	4G# 4g#	4ee 4bb 4eee
=4	=4	=4
2.BBB: 2.BB:	8r	4.dd# 4.aa 4.ddd#
.	8A 8f#	.
.	4A 4f#	.
.	.	8cc# 8ccc#
.	4B 4d#	4a 4ff# 4aa
=5	=5	=5
2.EE: 2.BB:	8r	4.g# 4.ee 4.gg#
.	8G# 8B	.
.	4G# 4B	.
.	.	8b 8bb
.	4G# 4e	4b 4ee 4bb
=6	=6	=6
2.DD#: 2.BB:	8r	4.f# 4.b 4.ff#
.	8F# 8B	.
.	4F# 4B	.
.	.	8b 8bb
.	4F# 4f#	4b 4bb
=7	=7	=7
2CC#: 2BB:	8r	4.ee 4.gg# 4.eee
.	8G# 8e	.
.	4G# 4e	.
.	.	8ee 8eee
4FF#	4C#: 4A#:	4ff# 4aa# 4ccc# 4fff#
=8	=8	=8
*>A1	*>A1	*>A1
2.BBB 2.BB	8r	2b 2dd# 2bb
.	8F# 8d#	.
.	4F# 4d#	.
.	4D# 4B	4an 4ff# 4aan
=9:|!	=9:|!	=9:|!
*>A2	*>A2	*>A2
2BBB 2BB	8r	2b 2dd# 2bb
.	8F# 8d#	.
.	4F# 4d#	.
4r	4D# 4B	4b 4bb
=10!|:	=10!|:	=10!|:
*B:	*B:	*B:
*>B	*>B	*>B
2BB	8r	4.b 4.dd# 4.ff# 4.bb
.	8D# 8F#	.
.	4D# 4F#	.
.	.	8ccn 8cccn
4AA	4D# 4F#	4cc 4dd# 4ff# 4ccc
=11	=11	=11
2BB	8r	4.b 4.dd# 4.ff# 4.bb
.	8D# 8F#	.
.	4D# 4F#	.
.	.	8a 8aa
4Cn	4D# 4F#	4a 4dd# 4ff# 4aa
=12	=12	=12
2Cn	8r	4.gn 4.ee 4.ggn
.	8E 8Gn	.
.	4E 4G	.
.	.	8a 8aa
4r	4D# 4F#	4a 4ff# 4aa
=13	=13	=13
2Cn	8r	4.gn 4.ee 4.ggn
.	8E 8Gn	.
.	4E 4G	.
.	.	8f# 8ff#
4r	4F# 4d#	4f# 4dd# 4ff#
=14	=14	=14
*	*	*^
4Cn	8r	2.a#	4.ee
.	8Gn 8A# 8e	.	.
4r	4G [4A# 4e	.	.
.	.	.	8ff#
4r	4F# 4A#] 4d#	.	4a# 4ff#
=15	=15	=15	=15
4Cn:	4G: [4A#: 4g:	4a#	4.ee
4r	4F# 4A#] 4f#	4r	.
.	.	.	8a#
4r	4E 4e	4r	4a#
*	*	*v	*v
=16	=16	=16
2BB	8r	4.b
.	8D# 8F# 8d#	.
.	4D# 4F# 4d#	.
.	.	8bb
4r	4C# 4E 4c#	4bb
=17	=17	=17
2BB	8r	4.b
.	8D# 8B	.
.	4D# 4B	.
.	.	8bb
4r	4C# 4An	4bb
=18	=18	=18
*E:	*E:	*E:
2.EE: 2.BB:	8r	4.g# 4.b
.	8G# 8B	.
.	4G# 4B	.
.	.	8b 8bb
.	4G# 4e	4b 4ee 4bb
=19	=19	=19
2.FF#: 2.BB:	8r	4.a 4.dd# 4.aa
.	8A 8B	.
.	4A 4B	.
.	.	8b 8bb
.	4A 4d#	4b 4dd# 4bb
=20	=20	=20
2.EE: 2.BB:	8r	4.g# 4.ee 4.gg#
.	8G# 8B	.
.	4G# 4B	.
.	.	8b 8bb
.	4G# 4g#	4ee 4bb 4eee
=21	=21	=21
2.BBB: 2.BB:	8r	4.dd# 4.aa 4.ddd#
.	8A 8f#	.
.	4A 4f#	.
.	.	8cc# 8ccc#
.	4B 4d#	4a 4ff# 4aa
=22	=22	=22
2.EE: 2.BB:	8r	4.g# 4.ee 4.gg#
.	8G# 8B	.
.	4G# 4B	.
.	.	8b 8bb
.	4G# 4e	4b 4gg# 4bb
=23	=23	=23
2.DD#: 2.BB:	8r	4.b 4.gg# 4.bb
.	8G# 8B	.
.	4G# 4B	.
.	.	8gg# 8ggg#
.	4G# 4g#	4gg# 4bb 4ggg#
=24	=24	=24
4BBB 4BB	2.ryy	8b 8bb
.	.	8gg# 8ggg#
4A 4c# 4f#	.	4aa 4ccc# 4aaa
*	*	*^
4BB 4F# 4B	.	4dd# 4ddd#	8bb
.	.	.	8aa
*	*	*v	*v
=25	=25	=25
*>B1	*>B1	*>B1
2EE 2BB	8r	2ee 2gg# 2eee
.	8G# 8B	.
.	4G# 4B	.
4GG#	4r	4b 4bb
=26:|!	=26:|!	=26:|!
*>B2	*>B2	*>B2
4EE 4BB	2.ryy	2ee 2gg# 2eee
4E 4G# 4B	.	.
4r	.	4r
==	==	==
*-	*-	*-
